!!!!SEGMENT: pl-kk--kk-i-7--036-005_pekiel-bartlomiej--missa-benedictus.krn
!!!cenid: 16xx:834
!!!COM: Pękiel, Bartłomiej
!!!COM-rismID: pe30105642
!!!CDT: <1633-~1670
!!!CNT: Polish
!!!OPR: Missa
!!!OTL: Benedictus
!!!OMV: 005
!!!PDT: 1669
!!!AGN: Sacred; Mass
!!!YEC: Copyright 2022 Narodowy Instytut Fryderyka Chopina (https://polishscores.org)
!!!YEM: License CC-BY-4.0 (https://creativecommons.org/licenses/by/4.0)
!!!SMS-siglum: PL-Kk
!!!SMS-shelfmark: Kk.I.7
!!!SMS-shelfwork: 036-005 M
!!!SMS-variant:
!!!SMS-altvar:
!!!NIFC-rismSourceID: 300258077
!!!NIFC-rismChildID: 300258113
!!!NIFC-islandoraID: pl-kk:1956
!!!URL-pdf-islandora: https://repozytorium.nifc.pl/islandora/object/pl-kk%3A1956/datastream/PDF/view
!!!URL-scan: https://polish.musicsources.pl/pl/lokalizacje/galeria/rekopisy/6140 @EN{Scan on Polish Music Sources Website} @PL{Skany w portalu Dziedzictwo Muzyki Polskiej w otwartym dostępie}
!!!IIIF: https://repozytorium.nifc.pl/islandora/object/pl-kk%3A1956/datastream/IIIF/view
!!!ONB-nifc: UWAGA: C (skan 0027-0032, s.49-58), A (0114-0118, s.48-57), T(0188-0193, s.41-50), B(0280-0285, s.49-57). Części Mszy: 1. Kyrie, 2. Et in terra, 3. Patrem,. 4. Sanctus, 5. Benedictus, 6. Agnus Dei
!!!AIN: 1 alto 1 bass 2 tenor
!!!key: d:dor
**kern	**text	**kern	**text	**kern	**text	**kern	**text
*part4	*part4	*part3	*part3	*part2	*part2	*part1	*part1
*staff4	*staff4	*staff3	*staff3	*staff2	*staff2	*staff1	*staff1
*ICvox	*	*ICvox	*	*ICvox	*	*ICvox	*
*Ibass	*	*Itenor	*	*Ialto	*	*Itenor	*
*I"BASSVS.	*	*I"TENOR.	*	*I"ALTVS.	*	*I"CANTVS.	*
*mI"Basso	*	*mI"Alto	*	*mI"Tenore II	*	*mI"Tenore I	*
*I'B	*	*I'T	*	*I'A	*	*I'S	*
*mI'B	*	*mI'A	*	*mI'T 2	*	*mI'T 1	*
*clefF4	*	*clefC1	*	*clefC4	*	*clefC3	*
*	*	*mclefG2	*	*mclefGv2	*	*mclefGv2	*
*k[]	*	*k[]	*	*k[]	*	*k[]	*
*d:dor	*	*d:dor	*	*d:dor	*	*d:dor	*
*M2/1	*	*M2/1	*	*M2/1	*	*M2/1	*
*met(C|)	*	*met(C|)	*	*met(C|)	*	*met(C|)	*
*mmet(c|)	*	*mmet(c|)	*	*mmet(c|)	*	*mmet(c|)	*
!LO:MO:null:mod=*null	!	!LO:MO:null:mod=*null	!	!LO:MO:null:mod=*null	!	!LO:MO:null:mod=*null	!
*all\right	*	*all\right	*	*all\right	*	*all\right	*
=1-	=1-	=1-	=1-	=1-	=1-	=1-	=1-
*xywh-#285:691,488,6429,865	*	*	*	*xywh-#117:7377,2443,6382,865	*	*xywh-#31:7154,500,6323,870	*
!LO:TX:b:t=à 3.:mod=	!LO:MO:mod=Be-	!LO:TX:a:t=Benedictus Tacet.:mod=	!	!	!	!LO:TX:a:t=a 3. VoC.:mod=	!
1D	BE-	0ryy	.	00r	.	00r	.
2AA/	-ne-	.	.	.	.	.	.
2.D/	-di-	.	.	.	.	.	.
=2-	=2-	=2-	=2-	=2-	=2-	=2-	=2-
.	.	0ryy	.	.	.	.	.
4D/	-ctus	.	.	.	.	.	.
!LO:TX:t=P:problem=kreska pseudotaktowa	!	!	!	!	!	!	!
2C/	qui	.	.	.	.	.	.
1F	ve-	.	.	.	.	.	.
=3-	=3-	=3-	=3-	=3-	=3-	=3-	=3-
!	!	!	!	!	!	!LO:TX:t=P:problem=kreska pseudotaktowa	!
1E	-nit	0ryy	.	00r	.	1r	.
!	!	!	!	!	!	!	!LO:MO:mod=Be-
2r	.	.	.	.	.	1d	BE-
!LO:TX:t=P:problem=kreska pseudotaktowa	!	!	!	!	!	!	!
2D/	in	.	.	.	.	.	.
=4-	=4-	=4-	=4-	=4-	=4-	=4-	=4-
*2\right	*	*	*	*	*	*	*
2.F\	no-	0ryy	.	.	.	2A/	-ne-
*	*	*	*	*	*	*2\right	*
.	.	.	.	.	.	2.d\	-di-
4F\	-mi-	.	.	.	.	.	.
2E\	-ne	.	.	.	.	.	.
!	!	!	!	!	!	!	!LO:MO:mod=-ctus
.	.	.	.	.	.	4d\	-ct(us)
!	!	!	!	!	!	!LO:TX:t=P:problem=kreska pseudotaktowa	!
4A\	.	.	.	.	.	2c/	qui
!LO:TX:t=P:problem=kreska pseudotaktowa	!	!	!	!	!	!	!
4G\	.	.	.	.	.	.	.
=5-	=5-	=5-	=5-	=5-	=5-	=5-	=5-
!	!	!	!	!LO:TX:t=P:problem=kreska pseudotaktowa	!	!	!
4F\	Do-	0ryy	.	1r	.	1f	ve-
4E\	.	.	.	.	.	.	.
1D	.	.	.	.	.	.	.
!	!	!	!	!	!LO:MO:mod=Be-	!	!
.	.	.	.	1A	BE-	2.e\	.
!LO:TX:t=P:problem=kreska pseudotaktowa	!	!	!	!	!	!	!
2C#X/	.	.	.	.	.	.	.
!	!	!	!	!	!	!LO:TX:t=P:problem=kreska pseudotaktowa	!
.	.	.	.	.	.	4e\	-nit
=6-	=6-	=6-	=6-	=6-	=6-	=6-	=6-
*lig	*	*	*	*	*	*	*
1D	.	0ryy	.	2D/	-ne-	4f\	in
.	.	.	.	.	.	4e\	.
!	!	!	!	!	!LO:MO:mod=-di-	!	!
.	.	.	.	2.A/	-dic-	4d\	no-
.	.	.	.	.	.	8c/L	.
!	!	!	!	!	!	!LO:TX:t=P:problem=kreska pseudotaktowa	!
.	.	.	.	.	.	8B/J	.
*col	*	*	*	*	*	*	*
2.E\	.	.	.	.	.	2c/	.
!	!	!	!	!	!LO:MO:mod=-ctus	!	!
.	.	.	.	4A/	-t(us)	.	.
!	!	!	!	!LO:TX:b:t=P:problem=♯ below	!	!	!
.	.	.	.	2G#X/	qui	1B	.
*Xlig	*	*	*	*	*	*	*
4E\	-mi-	.	.	.	.	.	.
*Xcol	*	*	*	*	*	*	*
=7-	=7-	=7-	=7-	=7-	=7-	=7-	=7-
!LO:TX:t=P:problem=kreska pseudotaktowa	!	!	!	!	!	!	!
1AA	-ni	0ryy	.	1c	ve-	.	.
.	.	.	.	.	.	1A	.
!LO:TX:t=P:problem=kreska pseudotaktowa	!	!	!	!LO:TX:t=P:problem=kreska pseudotaktowa	!	!	!
00r	.	.	.	1B	-nit	.	.
!	!	!	!	!	!	!LO:TX:t=P:problem=kreska pseudotaktowa	!
.	.	.	.	.	.	2G#X/	.
=8-	=8-	=8-	=8-	=8-	=8-	=8-	=8-
.	.	0ryy	.	2r	.	4A/	.
.	.	.	.	.	.	4B/	.
.	.	.	.	2A/	in	4c/	.
!	!	!	!	!	!	!LO:TX:t=P:problem=kreska pseudotaktowa	!
.	.	.	.	.	.	4d\	.
*	*	*	*	*2\right	*	*	*
.	.	.	.	2.c\	no-	4e\	.
.	.	.	.	.	.	4A/	.
.	.	.	.	.	.	1a	.
!	!	!	!	!LO:TX:t=P:problem=kreska pseudotaktowa	!	!	!
.	.	.	.	4c\	-mi-	.	.
=9-	=9-	=9-	=9-	=9-	=9-	=9-	=9-
.	.	0ryy	.	2B\	-ne	.	.
!	!	!	!	!	!	!LO:TX:t=P:problem=kreska pseudotaktowa	!
.	.	.	.	4e\	Do-	2g#X\	-mi-
!	!	!	!	!LO:TX:t=P:problem=kreska pseudotaktowa	!	!	!
.	.	.	.	4d\	.	.	.
1A	Be-	.	.	4c\	.	2a\	-ne
.	.	.	.	4B\	.	.	.
!	!	!	!	!	!	!LO:TX:t=P:problem=kreska pseudotaktowa	!
.	.	.	.	4c\	.	2e\	in
!	!	!	!	!LO:TX:t=P:problem=kreska pseudotaktowa	!	!	!
.	.	.	.	4A/	.	.	.
=10-	=10-	=10-	=10-	=10-	=10-	=10-	=10-
2D/	-ne-	0ryy	.	1d	.	2.f\	no-
!LO:TX:t=P:problem=kreska pseudotaktowa, między nutą a kropką	!LO:MO:mod=-di-	!	!	!	!	!	!
2.A\	-dic-	.	.	.	.	.	.
.	.	.	.	.	.	4f\	-mi-
.	.	.	.	2c\	.	2e\	-ne
!	!LO:MO:mod=-ctus	!	!	!	!	!	!
4A\	-t(us)	.	.	.	.	.	.
!LO:TX:t=P:problem=kreska pseudotaktowa	!	!	!	!	!	!	!
2F\	qui	.	.	4f\	.	4a\	Do-
!	!	!	!	!LO:TX:t=P:problem=kreska pseudotaktowa	!	!LO:TX:t=P:problem=kreska pseudotaktowa	!
.	.	.	.	4e\	.	4gny\	.
*	*	*	*	*	*	*custos:f	*
!	!	!	!	!	!	!LO:LB:g=original	!
=11-	=11-	=11-	=11-	=11-	=11-	=11-	=11-
*	*	*	*	*	*	*xywh-#31:7222,1244,6112,701	*
1B-X	ve-	0ryy	.	2.d\	.	4f\	.
.	.	.	.	.	.	4e\	.
.	.	.	.	.	.	1d	.
.	.	.	.	4e\	.	.	.
!LO:TX:t=P:problem=kreska pseudotaktowa	!	!	!	!	!	!	!
1A	-nit	.	.	2f\	.	.	.
!	!	!	!	!	!	!LO:TX:t=P:problem=kreska pseudotaktowa	!
!	!	!	!	!LO:TX:t=P:problem=kreska pseudotaktowa	!	!LO:TX:b:t=P:problem=♯ below	!
.	.	.	.	2e\	.	2c#X/	.
*custos:D	*	*	*	*	*	*	*
!LO:LB:g=original	!	!	!	!	!	!	!
=12-	=12-	=12-	=12-	=12-	=12-	=12-	=12-
*xywh-#285:1278,1244,5872,696	*	*	*	*	*	*	*
!LO:TX:t=P:problem=kreska pseudotaktowa	!	!	!	!	!	!	!
0r	.	0ryy	.	4d\	.	1f	.
.	.	.	.	8c\L	.	.	.
.	.	.	.	8B\J	.	.	.
.	.	.	.	4A\	.	.	.
!	!	!	!	!LO:TX:t=P:problem=kreska pseudotaktowa	!	!	!
.	.	.	.	4B\	.	.	.
.	.	.	.	4c\	.	4e\	.
.	.	.	.	4B\	.	4d\	.
.	.	.	.	4A/	.	4cny/	.
!	!	!	!	!LO:TX:t=P:problem=kreska pseudotaktowa	!	!	!
.	.	.	.	4Gny/	.	4B/	.
*	*	*	*	*custos:F	*	*	*
!	!	!	!	!LO:LB:g=original	!	!	!
=13-	=13-	=13-	=13-	=13-	=13-	=13-	=13-
*	*	*	*	*xywh-#117:7357,3115,6197,817	*	*	*
1D	Be-	0ryy	.	4F/	.	2A/	.
.	.	.	.	4G/	.	.	.
!	!	!	!	!	!	!LO:TX:t=P:problem=kreska pseudotaktowa	!
.	.	.	.	4A/	.	2f\	.
!	!	!	!	!LO:TX:t=P:problem=kreska pseudotaktowa	!	!	!
.	.	.	.	4B\	.	.	.
2AA/	-ne-	.	.	4c\	.	2e\	.
.	.	.	.	4B\	.	.	.
*	*	*	*	*	*	*lig	*
!	!LO:MO:mod=-di-	!	!	!	!	!	!
2.D/	-dic-	.	.	4A/	.	1f	.
!	!	!	!	!LO:TX:t=P:problem=kreska pseudotaktowa	!	!	!
.	.	.	.	4G/	.	.	.
=14-	=14-	=14-	=14-	=14-	=14-	=14-	=14-
.	.	0ryy	.	4A/	.	.	.
!	!LO:MO:mod=-ctus	!	!	!	!	!	!
4D/	-t(us)	.	.	4B\	.	.	.
!LO:TX:t=P:problem=kreska pseudotaktowa	!	!	!	!	!	!	!
2Cny/	qui	.	.	1c	.	1e	.
*lig	*	*	*	*	*	*	*
1F	ve-	.	.	.	.	.	.
*	*	*	*	*	*	*Xlig	*
.	.	.	.	4B\	.	1d	.
!	!	!	!	!LO:TX:t=P:problem=kreska pseudotaktowa	!	!	!
.	.	.	.	4A/	.	.	.
=15-	=15-	=15-	=15-	=15-	=15-	=15-	=15-
1E	.	0ryy	.	4G/	.	.	.
.	.	.	.	4F/	.	.	.
!	!	!	!	!	!	!LO:TX:b:t=P:problem=♯ below	!
.	.	.	.	4.G/	.	4c#X/	.
.	.	.	.	.	.	8d\L	.
!	!	!	!	!LO:TX:t=P:problem=kreska pseudotaktowa	!	!LO:TX:t=P:problem=kreska pseudotaktowa	!
.	.	.	.	8G/	-mi-	8e\J	.
*Xlig	*	*	*	*	*	*	*
!	!	!	!	!LO:TX:t=P:global:problem=rozdzielacz słów	!	!	!
2D/	-nit	.	.	2A,</	-ni.	[1f	.
!LO:TX:t=P:problem=kreska pseudotaktowa	!	!	!	!LO:TX:t=P:problem=kreska pseudotaktowa	!	!	!
2D/	in	.	.	2A/	Be-	.	.
=16-	=16-	=16-	=16-	=16-	=16-	=16-	=16-
2.F\	no-	0ryy	.	2D/	-ne-	4f\]	.
.	.	.	.	.	.	4e\	.
!	!	!	!	!	!LO:MO:mod=-di-	!	!
.	.	.	.	2.A/	-dic-	4d\	.
4F\	-mi-	.	.	.	.	8cny/L	.
!	!	!	!	!	!	!LO:TX:t=P:problem=kreska pseudotaktowa	!
.	.	.	.	.	.	8B/J	.
2E\	-ne	.	.	.	.	2c/	.
!	!	!	!	!	!LO:MO:mod=-ctus	!	!
.	.	.	.	4A/	-t(us)	.	.
!	!	!	!	!LO:TX:t=P:problem=kreska pseudotaktowa	!	!	!
4E\	Do-	.	.	2G/	qui	2B/	-mi-
!LO:TX:t=P:problem=kreska pseudotaktowa	!	!	!	!	!	!	!
4D/	.	.	.	.	.	.	.
=17-	=17-	=17-	=17-	=17-	=17-	=17-	=17-
*	*	*	*	*lig	*	*	*
!	!	!	!	!	!	!LO:TX:t=P:global:problem=rozdzielacz słów	!
4C/	.	0ryy	.	1c	ve-	1e,<	-ni,
4BB/	.	.	.	.	.	.	.
1AA	.	.	.	.	.	.	.
!	!	!	!	!	!	!LO:TX:t=P:problem=kreska pseudotaktowa	!
.	.	.	.	1B	.	1e	Be-
!LO:TX:t=P:problem=kreska pseudotaktowa	!	!	!	!	!	!	!
2GG/	.	.	.	.	.	.	.
*	*	*	*	*Xlig	*	*	*
=18-	=18-	=18-	=18-	=18-	=18-	=18-	=18-
2.F\	.	0ryy	.	2c\	.	2A/	-ne-
!	!	!	!	!	!	!	!LO:MO:mod=-di-
.	.	.	.	4B\	.	2.d\	-dic-
!	!	!	!	!LO:TX:t=P:problem=kreska pseudotaktowa	!	!	!
4F\	-mi-	.	.	4A/	.	.	.
!LO:TX:t=P:global:problem=rozdzielacz słów	!	!	!	!	!	!	!
1E,<	-ni	.	.	4G/	.	.	.
!	!	!	!	!	!	!	!LO:MO:mod=-ctus
.	.	.	.	4F/	.	4d\	-t(us)
!	!	!	!	!	!	!LO:TX:t=P:problem=kreska pseudotaktowa	!
!	!	!	!	!LO:TX:t=P:problem=kreska pseudotaktowa	!	!LO:TX:b:t=P:problem=♯ below	!
.	.	.	.	2G/	.	2c#X/	qui
=19-	=19-	=19-	=19-	=19-	=19-	=19-	=19-
!LO:TX:t=P:problem=kreska pseudotaktowa	!	!	!	!	!	!	!
1D	Be-	0ryy	.	2A,</	-nit	1f	ve-
.	.	.	.	2A/	in	.	.
!	!	!	!	!	!	!LO:TX:t=P:problem=kreska pseudotaktowa	!
2AA/	-ne-	.	.	2.c\	no-	0e	-nit
!	!LO:MO:mod=-di-	!	!	!	!	!	!
2.A\	-dic-	.	.	.	.	.	.
!	!	!	!	!LO:TX:t=P:problem=kreska pseudotaktowa	!	!	!
.	.	.	.	4c\	-mi-	.	.
=20-	=20-	=20-	=20-	=20-	=20-	=20-	=20-
.	.	0ryy	.	2B\	-ne	.	.
!	!LO:MO:mod=-ctus	!	!	!	!	!	!
4A\	-t(us)	.	.	.	.	.	.
!LO:TX:t=P:problem=kreska pseudotaktowa	!	!	!	!	!	!	!
*	*	*	*	*lig	*	*	*
2G\	qui	.	.	1e	Do-	.	.
1F	ve-	.	.	.	.	00r	.
.	.	.	.	1d	.	.	.
=21-	=21-	=21-	=21-	=21-	=21-	=21-	=21-
4E\	.	0ryy	.	.	.	.	.
4D/	.	.	.	.	.	.	.
*	*	*	*	*Xlig	*	*	*
!	!	!	!	!LO:TX:t=P:problem=kreska pseudotaktowa	!	!	!
4E\	.	.	.	2c\	.	.	.
!LO:TX:t=P:problem=kreska pseudotaktowa	!	!	!	!	!	!	!
4F\	.	.	.	.	.	.	.
*	*	*	*	*custos:B	*	*	*
*	*	*	*	*xywh-#117:7377,3767,6119,934	*	*	*
!	!	!	!	!LO:LB:g=original	!	!	!
4G\	.	.	.	2.B-X\	.	.	.
4D/	.	.	.	.	.	.	.
1G\	.	.	.	.	.	.	.
!	!	!	!	!LO:TX:t=P:problem=kreska pseudotaktowa	!	!	!
.	.	.	.	4B-\	-mi-	.	.
=22-	=22-	=22-	=22-	=22-	=22-	=22-	=22-
.	.	0ryy	.	2.A,</	-ni	.	.
!LO:TX:t=P:problem=♯ above	!	!	!	!	!	!	!
2F#X\	.	.	.	.	.	.	.
!	!	!	!	!LO:TX:t=P:problem=kreska pseudotaktowa	!	!	!
.	.	.	.	4A/	in	.	.
!LO:TX:t=P:problem=kreska pseudotaktowa	!	!	!	!	!	!	!
1G	.	.	.	2.B-X\	no-	2r	.
!	!	!	!	!	!	!LO:TX:t=P:problem=kreska pseudotaktowa	!
.	.	.	.	.	.	2d\	in
!	!	!	!	!LO:TX:t=P:problem=kreska pseudotaktowa	!	!	!
.	.	.	.	4B-\	-mi-	.	.
*custos:D	*	*	*	*	*	*custos:f	*
!LO:LB:g=original	!	!	!	!	!	!LO:LB:g=original	!
=23-	=23-	=23-	=23-	=23-	=23-	=23-	=23-
*xywh-#285:1348,1881,5334,686	*	*	*	*	*	*xywh-#31:7213,1862,6179,752	*
!LO:TX:t=P:problem=kreska pseudotaktowa	!	!	!	!	!	!	!
1D	-nit	0ryy	.	2A/	-ne	2.f\	no-
.	.	.	.	4d\	Do-	.	.
!	!	!	!	!LO:TX:t=P:problem=kreska pseudotaktowa	!	!	!
.	.	.	.	4c\	.	4f\	-mi-
0r	.	.	.	4B-X\	.	2d\	-ne
.	.	.	.	4A/	.	.	.
.	.	.	.	4G/	.	4g\	Do-
!	!	!	!	!	!	!LO:TX:t=P:problem=kreska pseudotaktowa	!
.	.	.	.	8A/L	.	4f\	.
!	!	!	!	!LO:TX:t=P:problem=kreska pseudotaktowa	!	!	!
.	.	.	.	8B-/J	.	.	.
=24-	=24-	=24-	=24-	=24-	=24-	=24-	=24-
.	.	0ryy	.	4c\	.	4e\	.
.	.	.	.	4Bny\	.	4d\	.
.	.	.	.	4A/	.	2.cny/	.
!	!	!	!	!LO:TX:t=P:problem=kreska pseudotaktowa	!	!	!
.	.	.	.	4G/	.	.	.
!	!	!	!	!LO:TX:b:t=P:problem=♯ below	!	!	!
1D	Be-	.	.	4F#X/	.	.	.
.	.	.	.	2G/	.	4B/	.
.	.	.	.	.	.	4A/	.
!	!	!	!	!LO:TX:t=P:problem=kreska pseudotaktowa	!	!	!
.	.	.	.	4F#/	.	2d\	.
=25-	=25-	=25-	=25-	=25-	=25-	=25-	=25-
2AA/	-ne-	0ryy	.	2E/	.	.	.
.	.	.	.	.	.	4c/	.
!	!LO:MO:mod=-di-	!	!	!LO:N:acc=-	!	!	!
2.D/	-dic-	.	.	4Fn/	.	4d\	.
!	!	!	!	!LO:TX:t=P:problem=kreska pseudotaktowa	!	!LO:TX:t=P:problem=kreska pseudotaktowa	!
.	.	.	.	4G/	.	4e\	.
.	.	.	.	4A/	.	4f\	.
!	!LO:MO:mod=-ctus	!	!	!	!	!	!
4D/	-t(us)	.	.	4B\	.	8e\L	.
.	.	.	.	.	.	8d\J	.
!LO:TX:t=P:problem=kreska pseudotaktowa	!	!	!	!	!	!	!
2C/	qui	.	.	4c\	.	1e\	.
!	!	!	!	!LO:TX:t=P:problem=kreska pseudotaktowa	!	!	!
.	.	.	.	4B\	.	.	.
=26-	=26-	=26-	=26-	=26-	=26-	=26-	=26-
!LO:TX:a:t=+:mod=	!LO:MO:mod=ve-	!	!	!	!	!	!
1Fny	Ve-	0ryy	.	4A/	.	.	.
.	.	.	.	4G/	.	.	.
!	!	!	!	!	!	!LO:TX:t=P:problem=kreska pseudotaktowa	!
.	.	.	.	4A/	.	2d\	-mi-
!	!	!	!	!LO:TX:t=P:problem=kreska pseudotaktowa	!	!	!
.	.	.	.	4B\	.	.	.
!LO:TX:t=P:problem=kreska pseudotaktowa	!	!	!	!	!	!	!
1E	-nit	.	.	4c\	.	2e\	-ni
.	.	.	.	8B\L	.	.	.
.	.	.	.	8A\J	.	.	.
.	.	.	.	4.B\	.	2e\	in
!	!	!	!	!LO:TX:t=P:problem=kreska pseudotaktowa	!	!	!
.	.	.	.	8B\	-mi-	.	.
=27-	=27-	=27-	=27-	=27-	=27-	=27-	=27-
!LO:TX:t=P:problem=kreska pseudotaktowa	!	!	!	!	!	!	!
00r	.	0ryy	.	2A,</	-ni	2.f\	no-
!	!	!	!	!LO:TX:t=P:problem=kreska pseudotaktowa	!	!	!
.	.	.	.	2A/	in	.	.
!	!	!	!	!	!	!LO:TX:t=P:problem=kreska pseudotaktowa	!
.	.	.	.	.	.	4f\	-mi-
.	.	.	.	2.c\	no-	2e\	-ne
.	.	.	.	.	.	2.a\	Do-
!	!	!	!	!LO:TX:t=P:problem=kreska pseudotaktowa	!	!	!
.	.	.	.	4c\	-mi-	.	.
=28-	=28-	=28-	=28-	=28-	=28-	=28-	=28-
.	.	0ryy	.	2A/	-ne	.	.
.	.	.	.	.	.	4g\	.
.	.	.	.	4d\	.	4f\	.
!	!	!	!	!LO:TX:t=P:problem=kreska pseudotaktowa	!	!LO:TX:t=P:problem=kreska pseudotaktowa	!
.	.	.	.	4c\	Do-	4e\	.
*	*	*	*	*custos:B	*	*	*
*	*	*	*	*xywh-#118:1280,613,4035,807	*	*	*
!	!	!	!	!LO:PB:g=original	!	!	!
.	.	.	.	4B\	.	2d\	.
.	.	.	.	4A/	.	.	.
.	.	.	.	4B\	.	1g\	.
.	.	.	.	4G/	.	.	.
=29-	=29-	=29-	=29-	=29-	=29-	=29-	=29-
1A	in	0ryy	.	1.c	.	.	.
!	!	!	!	!	!	!LO:TX:t=P:problem=♯ above	!
.	.	.	.	.	.	4f#X\	.
!	!	!	!	!	!	!LO:TX:t=P:problem=kreska pseudotaktowa	!
.	.	.	.	.	.	4e\	.
!	!	!	!	!	!	!LO:TX:t=P:problem=♯ above	!
4D/	no-	.	.	.	.	2f#X\	.
8E\L	.	.	.	.	.	.	.
!LO:SIC:v:s=8F#iJ	!	!	!	!	!	!	!
8F#y\J	.	.	.	.	.	.	.
!	!	!	!	!	!	!LO:TX:t=P:problem=kreska pseudotaktowa	!
!	!	!	!	!LO:TX:t=P:problem=kreska pseudotaktowa	!	!LO:TX:t=P:problem=♯ above	!
!	!	!	!	!	!	!LO:SIC:v:s=2g	!
2.G\	.	.	.	2B-X\	.	2g#X\	.
=30-	=30-	=30-	=30-	=30-	=30-	=30-	=30-
.	.	0ryy	.	2c\	.	1a	-mi-
4G\	-mi-	.	.	.	.	.	.
!LO:TX:t=P:problem=kreska pseudotaktowa	!	!	!	!	!	!	!
2F#X\	-ne	.	.	2d\	-mi-	.	.
*lig	*	*	*	*	*	*	*
!	!	!	!	!	!	!LO:SIC:v:s=2g	!
1B-X	Do-	.	.	2G/	-ni	2a;\	-ni
.	.	.	.	1d\	Do-	4r	.
!	!	!	!	!	!	!LO:TX:t=P:problem=kreska pseudotaktowa	!
.	.	.	.	.	.	4d\	in
=31-	=31-	=31-	=31-	=31-	=31-	=31-	=31-
*col	*	*	*	*	*	*	*
2.A\	.	0ryy	.	.	.	4.fny\	no-
.	.	.	.	.	.	8f\	-mi-
.	.	.	.	4c\	.	2e\	-ne
*Xlig	*	*	*	*	*	*	*
!LO:TX:t=P:problem=kreska pseudotaktowa	!	!	!	!LO:TX:t=P:problem=kreska pseudotaktowa	!	!	!
4G\	.	.	.	4Bny\	.	.	.
*Xcol	*	*	*	*	*	*custos:a	*
*	*	*	*	*	*	*xywh-#31:7273,2529,6129,718	*
!	!	!	!	!	!	!LO:LB:g=original	!
4Fny\	.	.	.	2.A/	.	4a\	Do-
4E\	.	.	.	.	.	4gny\	.
4D/	.	.	.	.	.	1f\	.
8C/L	.	.	.	4B\	.	.	.
!LO:TX:t=P:problem=kreska pseudotaktowa	!	!	!	!	!	!	!
8BB/J	.	.	.	.	.	.	.
=32-	=32-	=32-	=32-	=32-	=32-	=32-	=32-
!	!	!	!	!LO:TX:t=P:problem=♯ above	!	!	!
1.AA	.	0ryy	.	4c#X\	.	.	.
.	.	.	.	4A/	.	.	.
.	.	.	.	1d	.	4e\	.
!	!	!	!	!	!	!LO:TX:t=P:problem=kreska pseudotaktowa	!
.	.	.	.	.	.	4d\	.
.	.	.	.	.	.	2.e\	.
!	!	!	!	!LO:TX:t=P:problem=♯ above	!	!	!
2AA/	-mi-	.	.	2c#X\	-mi-	.	.
.	.	.	.	.	.	4e\	-mi-
=33-	=33-	=33-	=33-	=33-	=33-	=33-	=33-
0Dl;<	-ni	0ryy	.	0dl;	-ni	0dl;<	-ni
!LO:LB:g=original	!	!	!	!LO:LB:g=original	!	!	!
=34||	=34||	=34||	=34||	=34||	=34||	=34||	=34||
*M2/1	*	*M2/1	*	*M2/1	*	*M2/1	*
*met(C|)	*	*met(C|)	*	*met(C|)	*	*met(C|)	*
*mmet(c|)	*	*mmet(c|)	*	*mmet(c|)	*	*mmet(c|)	*
*xywh-#285:900,2478,6200,646	*	*xywh-#192:7190,462,6168,1056	*	*xywh-#118:1228,1209,5246,877	*	*	*
!	!	!	!	!	!	!LO:TX:t=P:problem=kreska pseudotaktowa	!
!LO:TX:b:t=a. 4.:mod=	!	!LO:TX:a:t=a 4.:mod=	!	!LO:TX:b:t=a 4:mod=	!	!LO:TX:b:t=a 4:mod=	!
00r	.	1d	O-	00r	.	1r	.
!	!	!LO:TX:t=P:problem=kreska pseudotaktowa	!	!	!	!	!
.	.	1f	-ſan-	.	.	1A	O-
=35-	=35-	=35-	=35-	=35-	=35-	=35-	=35-
.	.	2e/	-na	.	.	1c	-ſan-
.	.	1a	in	.	.	.	.
.	.	.	.	.	.	2B/	-na
!	!	!LO:TX:t=P:problem=kreska pseudotaktowa	!	!	!	!	!
.	.	2g/	ex-	.	.	1e\	.
=36-	=36-	=36-	=36-	=36-	=36-	=36-	=36-
*	*	*2\right	*	*	*	*	*
!LO:TX:t=P:problem=kreska pseudotaktowa	!	!	!	!LO:TX:t=P:problem=kreska pseudotaktowa	!	!	!
0r	.	2.cc\	-cel-	1r	.	.	.
!	!	!	!	!	!	!LO:TX:t=P:problem=kreska pseudotaktowa	!
.	.	.	.	.	.	2c/	in
.	.	4b\	.	.	.	.	.
.	.	4a\	.	1D	O-	2.f\	ex-
.	.	4g/	.	.	.	.	.
.	.	2.a\	.	.	.	.	.
.	.	.	.	.	.	8e\L	-cel-
.	.	.	.	.	.	8d\J	.
=37-	=37-	=37-	=37-	=37-	=37-	=37-	=37-
1AA	O-	.	.	1F	-ſan-	2.c/	.
.	.	4b\	.	.	.	.	.
!	!	!LO:TX:t=P:problem=kreska pseudotaktowa, między nutą a kropką	!	!	!	!	!
.	.	2.cc\	.	.	.	.	.
!	!	!	!	!	!	!LO:TX:t=P:problem=kreska pseudotaktowa	!
.	.	.	.	.	.	4d\	.
1C	.	.	.	2E/	-na	1e	.
.	.	4b\	.	.	.	.	.
.	.	2a\	.	1A	in	.	.
=38-	=38-	=38-	=38-	=38-	=38-	=38-	=38-
!	!	!LO:TX:t=P:problem=kreska pseudotaktowa	!	!	!	!	!
2BB/	-ſan-	1b	-ſis	.	.	2d,<\	-ſis
!	!	!	!	!LO:TX:t=P:problem=kreska pseudotaktowa	!	!LO:TX:t=P:problem=kreska pseudotaktowa	!LO:MO:mod=O-
1E	-na	.	.	2G/	.	2B/	o-
.	.	1r	.	2.cny\	ex-	2.e\	-ſan-
!LO:TX:t=P:problem=kreska pseudotaktowa	!	!	!	!	!	!	!
2C/	in	.	.	.	.	.	.
.	.	.	.	4B\	-cel-	4d\	.
=39-	=39-	=39-	=39-	=39-	=39-	=39-	=39-
2.F\	ex-	2r	.	0A	.	4c/	.
.	.	.	.	.	.	8d\L	.
.	.	.	.	.	.	8e\J	.
!	!	!LO:TX:t=P:problem=kreska pseudotaktowa	!	!	!	!	!
.	.	2d/	O-	.	.	2.f\	.
4E\	.	.	.	.	.	.	.
4D\	-cel-	1f	-ſan-	.	.	.	.
4E\	.	.	.	.	.	4e\	.
!	!	!	!	!	!	!LO:TX:t=P:problem=kreska pseudotaktowa	!
4F\	.	.	.	.	.	2d\	.
!LO:TX:t=P:problem=kreska pseudotaktowa	!	!	!	!	!	!	!
4G\	.	.	.	.	.	.	.
*	*	*	*	*	*	*custos:c	*
!	!	!	!	!	!	!LO:LB:g=original	!
=40-	=40-	=40-	=40-	=40-	=40-	=40-	=40-
*	*	*	*	*	*	*xywh-#31:7264,3147,3652,701	*
!	!	!	!	!LO:TX:t=P:problem=kreska pseudotaktowa	!	!	!
2A\	.	2e/	-na	1A	-ſis	2c/	.
2F\	.	1a	in	.	.	1f	.
2.c\	.	.	.	0r	.	.	.
!	!	!LO:TX:t=P:problem=kreska pseudotaktowa	!	!	!	!	!
.	.	2g/	ex-	.	.	4e\	.
!LO:TX:t=P:problem=kreska pseudotaktowa	!	!	!	!	!	!LO:TX:t=P:problem=kreska pseudotaktowa	!
4Bny\	.	.	.	.	.	4d\	.
=41-	=41-	=41-	=41-	=41-	=41-	=41-	=41-
*	*	*	*	*	*	*lig	*
4A\	.	4cc\	-cel-	.	.	1c	.
4G\	.	4b\	.	.	.	.	.
4F\	.	4a\	.	.	.	.	.
!LO:TX:t=P:problem=kreska pseudotaktowa	!	!LO:TX:t=P:problem=kreska pseudotaktowa	!	!	!	!	!
4E\	.	4g/	.	.	.	.	.
!	!	!	!	!LO:TX:t=P:problem=kreska pseudotaktowa	!	!	!
4D/	.	4f/	.	1r	.	1d	.
4E\	.	4g/	.	.	.	.	.
4F\	.	4a\	.	.	.	.	.
!LO:TX:t=P:problem=kreska pseudotaktowa	!	!	!	!	!	!	!
4G\	.	4b\	.	.	.	.	.
*	*	*	*	*	*	*Xlig	*
=42-	=42-	=42-	=42-	=42-	=42-	=42-	=42-
2.A\	.	4cc\	.	1A	O-	1c	-na
.	.	4a\	.	.	.	.	.
.	.	4cc\	.	.	.	.	.
8G\L	.	8b\L	.	.	.	.	.
!	!	!LO:TX:t=P:problem=kreska pseudotaktowa	!	!	!	!	!
8F\J	.	8a\J	.	.	.	.	.
!	!	!	!	!	!	!LO:TX:t=P:problem=kreska pseudotaktowa	!
4E\	.	0g	.	1c	-ſan-	1e	in
4D/	.	.	.	.	.	.	.
4E\	.	.	.	.	.	.	.
!LO:TX:t=P:problem=kreska pseudotaktowa	!	!	!	!	!	!	!
4F\	.	.	.	.	.	.	.
=43-	=43-	=43-	=43-	=43-	=43-	=43-	=43-
!	!	!	!	!	!	!LO:SIC:v:s=2d	!
2G\	.	.	.	2B\	-na	2c/	ex-
2E\	.	.	.	1e	in	2g\	-cel-
!	!	!LO:TX:a:t=4:mod=	!	!	!	!	!
2.F\	.	00a	.	.	.	2c/	.
!	!	!	!	!LO:TX:t=P:problem=kreska pseudotaktowa	!	!LO:TX:t=P:problem=kreska pseudotaktowa, między nutą a kropką	!
.	.	.	.	2d\	ex-	2.f\	-ſis
4E\	.	.	.	.	.	.	.
=44-	=44-	=44-	=44-	=44-	=44-	=44-	=44-
2D/	.	.	.	2f\	-cel-	.	.
.	.	.	.	.	.	4g\	in
!LO:TX:b:t=P:problem=♯ below	!	!	!	!	!	!	!
2C#X/	.	.	.	1e	.	4a\	.
!	!	!	!	!	!	!LO:TX:t=P:problem=kreska pseudotaktowa	!
.	.	.	.	.	.	4g\	ex-
0D	.	.	.	.	.	0f	-cel-
.	.	.	.	4d\	.	.	.
!	!	!	!	!LO:SIC:v:s=4c#i	!	!	!
!	!	!	!	!LO:TX:t=P:problem=kreska pseudotaktowa	!	!	!
.	.	.	.	4c\	.	.	.
=45-	=45-	=45-	=45-	=45-	=45-	=45-	=45-
.	.	.	.	1d	.	.	.
!	!	!LO:SIC:v:s=1a;	!	!	!	!LO:SIC:v:s=1e;	!
1AAl;<	-ſis	1al;;	-ſis.	1c#Xl;	-ſis.	1el;;	-ſis.
==	==	==	==	==	==	==	==
*-	*-	*-	*-	*-	*-	*-	*-
!!!system-decoration: [*]
!!!RDF**kern: > = above
!!!RDF**kern: < = below
!!!RDF**kern: i = editorial accidental
!!LO:MO:ori
!!!RDF**kern: l = terminal long
!!LO:MO:end
!!!filter-modern: sic -sq | shed -e "s/^(\d+[\/\\]right)/$1yy/I;s/^(\d+[\/\\]left)/$1yy/I" | shed -e "s/TX(.*):t=P:/tx$1:t=P:/LG" | shed -e "s/yy//" | shed -e "s/^custos:/Xcustos:/I" | shed -k -e "s/r[a-gA-G]+/r/D" | shed -k -e "s/[<>]//g" | shed -e "s/-//B" | shed -e "s/LO:N:/LO:n:$1/L" | autostem -r | tie -s  | modori -m | humtr -p
!!!filter-modern: extract -k 1,3,4,2
!!!ENC: Andrzej Gręziak
!!!END: 2021-02-25
!!!EED: Andrzej Kubiczek
!!!EEV: 2021-03-13
!!!ENC-modern: Andrzej Borzym
!!!END-modern: 2022-07-14
!!!ENC-iiif: Konrad Tyszka
!!!END-iiif: 2022-09-01
